X:2
T:Stick the Minister
M:C|
L:1/8
K:Amin
c   |A/c/d dd e2 de |f>gTe>d g/f/e/d/ ce   |d/d/d dd       e2 ed/e/   |ff g/f/e/d/ T^c>BA:|
f/g/|a>ba>f   g>ag>e|f>gf>d  g/f/e/d/ cf/g/|aa    b/a/g/f/ gg a/g/f/e/|ff g/f/e/d/ T^c>BA:|

%%  3. ===============================================================================

%    @THE@
% &Collonel.&
%
% *SETT and cast off, then the Man setts down and the Woman up.  *The Man runs the figure 8
% with the 2d Couple, while the Woman does the same with the first.  Change pairs and figure
% as before.  *SETT to your Partner, and turn cross Partners, the same again.  *Sett cross
% Partners & turn to your Partner.

